X: 3250
T: Syvspring
B:[[Notböcker/Melodier til gamle danske Almuedanse for Violin solo]]
O:Danmark
Z:Søren Bak Vestergaard
M: 2/4
L: 1/8
K: A
|:E|AB cd|e2 ce|d2 Bd|c2 (AE)|AB cd|e2 ce|\
(dB) GB|1 A2z:|2 A2z2\
|:B2B2|B2 (Bc)|BF GF|EF GA|B2 B2|\
B2 (Bc)|BA GF|[1 E2z2:|[2 E2z|:E|AB cd|e(f/e/) ce|\
d(e/d/) Bd|c(d/c/) AE|AB cd|e(f/e/) ce|dB GB|A2z:|
(:musicend:)
(:music:)
